lib/icons-source/save.svg

<svg width="21" height="21" viewBox="0 0 21 21" fill="none" xmlns="http://www.w3.org/2000/svg">
<g clip-path="url(#clip0_18_39)">
<rect width="21" height="21" fill="white"/>
<path d="M20.1797 14.4375C20.6328 14.4375 21 14.0703 21 13.6172V3.36328C21 3.14571 20.9136 2.9371 20.7597 2.78313L18.2167 0.240166C18.0629 0.0863571 17.8543 0 17.6367 0H3.28125C1.47192 0 0 1.47192 0 3.28125V17.7188C0 19.5281 1.47192 21 3.28125 21H17.7188C19.5281 21 21 19.5281 21 17.7188C21 17.2657 20.6328 16.8984 20.1797 16.8984C19.7266 16.8984 19.3594 17.2657 19.3594 17.7188C19.3594 18.6233 18.6233 19.3594 17.7188 19.3594H3.28125C2.37666 19.3594 1.64062 18.6233 1.64062 17.7188V3.28125C1.64062 2.37666 2.37666 1.64062 3.28125 1.64062V5.41406C3.28125 6.7711 4.38515 7.875 5.74219 7.875H13.5352C14.8922 7.875 15.9961 6.7711 15.9961 5.41406V1.64062H17.2969L19.3594 3.7031V13.6172C19.3594 14.0703 19.7266 14.4375 20.1797 14.4375ZM14.3555 5.41406C14.3555 5.86636 13.9874 6.23438 13.5352 6.23438H5.74219C5.28989 6.23438 4.92188 5.86636 4.92188 5.41406V1.64062H11.0742V3.77344C11.0742 4.22653 11.4414 4.59375 11.8945 4.59375C12.3476 4.59375 12.7148 4.22653 12.7148 3.77344V1.64062H14.3555V5.41406ZM4.10156 9.51562C3.64847 9.51562 3.28125 9.88284 3.28125 10.3359V16.8984C3.28125 17.3515 3.64847 17.7188 4.10156 17.7188H16.8984C17.3515 17.7188 17.7188 17.3515 17.7188 16.8984V10.3359C17.7188 9.88284 17.3515 9.51562 16.8984 9.51562H4.10156ZM16.0781 16.0781H4.92188V11.1562H16.0781V16.0781Z" fill="black"/>
</g>
<defs>
<clipPath id="clip0_18_39">
<rect width="21" height="21" fill="white"/>
</clipPath>
</defs>
</svg>

<svg viewBox="0 0 21 21" fill="none" xmlns="http://www.w3.org/2000/svg"><rect fill="white"/><path d="M20.18 14.438a.82.82 0 0 0 .82-.82V3.362a.82.82 0 0 0-.24-.58L18.217.24a.82.82 0 0 0-.58-.24H3.28A3.285 3.285 0 0 0 0 3.281V17.72A3.285 3.285 0 0 0 3.281 21H17.72A3.285 3.285 0 0 0 21 17.719a.82.82 0 1 0-1.64 0c0 .904-.737 1.64-1.641 1.64H3.28c-.904 0-1.64-.736-1.64-1.64V3.28c0-.904.736-1.64 1.64-1.64v3.773a2.464 2.464 0 0 0 2.461 2.461h7.793a2.464 2.464 0 0 0 2.461-2.46V1.64h1.3l2.063 2.062v9.914c0 .453.368.82.82.82m-5.824-9.024c0 .452-.369.82-.82.82H5.741a.82.82 0 0 1-.82-.82V1.641h6.152v2.132a.82.82 0 1 0 1.64 0V1.641h1.641zM4.102 9.516a.82.82 0 0 0-.82.82v6.562c0 .454.366.82.82.82h12.796a.82.82 0 0 0 .82-.82v-6.562a.82.82 0 0 0-.82-.82zm11.976 6.562H4.922v-4.922h11.156z" fill="black"/></svg>
